Newaita-dark/.DP/22/octopi-indicator.svg

<svg xmlns="http://www.w3.org/2000/svg" xmlns:xlink="http://www.w3.org/1999/xlink" width="22px" height="22px" viewBox="0 0 22 22" version="1.1">
<g id="surface1">
<path style=" stroke:none;fill-rule:nonzero;fill:rgb(93.333334%,93.333334%,93.333334%);fill-opacity:1;" d="M 10.914062 1.992188 C 6.882812 1.992188 3.636719 5.640625 3.636719 10.179688 L 3.636719 17.453125 C 3.636719 17.9375 3.828125 18.398438 4.167969 18.742188 C 4.511719 19.082031 4.972656 19.273438 5.457031 19.273438 C 5.941406 19.273438 6.402344 19.082031 6.746094 18.742188 C 7.085938 18.398438 7.277344 17.9375 7.277344 17.453125 L 7.277344 15.636719 C 7.277344 15.394531 7.371094 15.164062 7.542969 14.992188 C 7.710938 14.820312 7.945312 14.726562 8.183594 14.726562 C 8.691406 14.726562 9.09375 15.128906 9.09375 15.636719 L 9.09375 17.453125 C 9.09375 18.460938 9.90625 19.273438 10.914062 19.273438 C 11.398438 19.273438 11.863281 19.082031 12.203125 18.742188 C 12.542969 18.398438 12.734375 17.9375 12.734375 17.453125 L 12.734375 15.636719 C 12.734375 15.128906 13.140625 14.726562 13.644531 14.726562 C 13.886719 14.726562 14.117188 14.820312 14.289062 14.992188 C 14.457031 15.164062 14.554688 15.394531 14.554688 15.636719 L 14.554688 17.453125 C 14.554688 17.9375 14.742188 18.398438 15.085938 18.742188 C 15.425781 19.082031 15.890625 19.273438 16.371094 19.273438 C 16.855469 19.273438 17.320312 19.082031 17.660156 18.742188 C 18 18.398438 18.191406 17.9375 18.191406 17.453125 L 18.191406 10.179688 C 18.191406 5.640625 14.945312 1.992188 10.914062 1.992188 Z M 8.183594 6.539062 C 9.195312 6.539062 10.007812 7.351562 10.007812 8.355469 C 10.007812 9.367188 9.195312 10.179688 8.183594 10.179688 C 7.703125 10.179688 7.238281 9.988281 6.898438 9.644531 C 6.558594 9.304688 6.367188 8.839844 6.367188 8.355469 C 6.367188 7.875 6.558594 7.410156 6.898438 7.070312 C 7.238281 6.730469 7.703125 6.539062 8.183594 6.539062 Z M 13.644531 6.539062 C 14.652344 6.539062 15.464844 7.351562 15.464844 8.355469 C 15.464844 9.367188 14.652344 10.179688 13.644531 10.179688 C 13.160156 10.179688 12.699219 9.988281 12.355469 9.644531 C 12.015625 9.304688 11.824219 8.839844 11.824219 8.355469 C 11.824219 7.875 12.015625 7.410156 12.359375 7.070312 C 12.699219 6.730469 13.160156 6.539062 13.644531 6.539062 Z M 8.640625 7.21875 C 8.011719 7.21875 7.503906 7.730469 7.503906 8.355469 C 7.503906 8.660156 7.621094 8.949219 7.835938 9.164062 C 8.050781 9.375 8.339844 9.496094 8.640625 9.496094 C 8.941406 9.496094 9.234375 9.375 9.445312 9.164062 C 9.660156 8.949219 9.78125 8.660156 9.777344 8.355469 C 9.777344 8.054688 9.660156 7.765625 9.445312 7.554688 C 9.230469 7.339844 8.941406 7.21875 8.640625 7.21875 Z M 14.097656 7.21875 C 13.796875 7.21875 13.507812 7.339844 13.296875 7.554688 C 13.082031 7.765625 12.960938 8.054688 12.960938 8.355469 C 12.960938 8.660156 13.082031 8.949219 13.292969 9.164062 C 13.507812 9.375 13.796875 9.496094 14.097656 9.496094 C 14.730469 9.496094 15.234375 8.988281 15.234375 8.355469 C 15.238281 8.054688 15.117188 7.765625 14.902344 7.554688 C 14.691406 7.339844 14.402344 7.21875 14.097656 7.21875 Z M 14.097656 7.21875 "/>
</g>
</svg>

<svg xmlns="http://www.w3.org/2000/svg" width="22pt" height="22pt" viewBox="0 0 22 22"><path d="M10.914 1.992c-4.031 0-7.277 3.649-7.277 8.184v7.277c0 1.008.812 1.82 1.82 1.82s1.82-.812 1.82-1.82v-1.816c0-.504.407-.91.91-.91.504 0 .91.406.91.91v1.816c0 1.008.81 1.82 1.817 1.82 1.008 0 1.82-.812 1.82-1.82v-1.816c0-.504.407-.91.91-.91.504 0 .91.406.91.91v1.816c0 1.008.81 1.82 1.817 1.82 1.008 0 1.82-.812 1.82-1.82v-7.277c0-4.535-3.246-8.184-7.277-8.184zM8.188 6.54c1.007 0 1.816.813 1.816 1.82a1.81 1.81 0 0 1-1.816 1.817 1.814 1.814 0 0 1-1.82-1.817c0-1.007.812-1.82 1.82-1.82zm5.457 0c1.007 0 1.82.813 1.82 1.82a1.814 1.814 0 0 1-1.82 1.817 1.814 1.814 0 0 1-1.82-1.817c0-1.007.812-1.82 1.82-1.82zm-5.004.684c-.63 0-1.137.504-1.137 1.136 0 .63.508 1.137 1.137 1.137s1.136-.508 1.136-1.137c0-.632-.507-1.136-1.136-1.136zm5.457 0c-.63 0-1.137.504-1.137 1.136 0 .63.508 1.137 1.137 1.137.632 0 1.136-.508 1.136-1.137a1.13 1.13 0 0 0-1.136-1.136zm0 0" fill="#bdbdbd"/></svg>
